public/assets/bottom-leaf.svg

<svg width="75" height="130" viewBox="0 0 75 130" fill="none" xmlns="http://www.w3.org/2000/svg">
<path d="M-6.34945 23.7534C-7.53095 24.9349 -8.1916 26.5405 -8.1861 28.2168C-8.1806 29.8932 -7.50936 31.5031 -6.3201 32.6924C-5.13083 33.8816 -3.52093 34.5529 -1.84455 34.5584C-0.168171 34.5639 1.43734 33.9032 2.61883 32.7217L25.4341 9.90648C27.9066 11.6262 30.2229 13.561 32.3559 15.6881C34.2065 17.6103 35.8542 19.7179 37.2726 21.9769L14.5733 44.6762C13.4802 45.8768 12.8944 47.4554 12.9377 49.0841C12.9809 50.7128 13.6498 52.2664 14.8055 53.422C15.9611 54.5777 17.5147 55.2466 19.1434 55.2898C20.7721 55.3331 22.3507 54.7473 23.5513 53.6542L43.6318 33.5737C46.0528 38.6425 48.4371 44.3316 50.7546 50.3599L35.5058 65.6087C34.3243 66.7902 33.6637 68.3957 33.6692 70.0721C33.6747 71.7485 34.3459 73.3584 35.5352 74.5476C36.7244 75.7369 38.3343 76.4081 40.0107 76.4136C41.6871 76.4191 43.2926 75.7584 44.4741 74.577L55.5193 63.5317C57.6233 69.5011 59.5534 75.6444 61.3859 81.5935L56.4383 86.5412C55.2568 87.7227 54.5961 89.3282 54.6016 91.0046C54.6071 92.6809 55.2784 94.2908 56.4676 95.4801C57.6569 96.6694 59.2668 97.3406 60.9432 97.3461C62.6196 97.3516 64.2251 96.691 65.4066 95.5095L65.5032 95.4128C70.9462 114.385 74.4556 129.065 74.4556 129.065C74.4556 129.065 59.7657 125.565 40.8037 120.112L40.9003 120.016C42.0818 118.834 42.7424 117.229 42.7369 115.552C42.7314 113.876 42.0602 112.266 40.8709 111.077C39.6817 109.888 38.0718 109.216 36.3954 109.211C34.719 109.205 33.1135 109.866 31.932 111.047L26.9747 116.005C21.0256 114.172 14.9209 112.204 8.92254 110.128L19.9678 99.0832C21.1493 97.9018 21.81 96.2962 21.8045 94.6199C21.799 92.9435 21.1277 91.3336 19.9385 90.1443C18.7492 88.955 17.1393 88.2838 15.4629 88.2783C13.7865 88.2728 12.181 88.9335 10.9995 90.115L-4.25896 105.373C-10.2775 103.066 -15.9763 100.672 -21.0451 98.2506L-0.95495 78.1605C0.138162 76.9599 0.723929 75.3813 0.68069 73.7526C0.637456 72.1239 -0.0314826 70.5703 -1.18715 69.4146C-2.34281 68.259 -3.89636 67.5901 -5.52505 67.5468C-7.15374 67.5036 -8.73236 68.0894 -9.93297 69.1825L-32.6419 91.8914C-34.897 90.4674 -37.004 88.8201 -38.9308 86.9748C-41.0579 84.8418 -42.9926 82.5254 -44.7123 80.0529L-21.8875 57.228C-20.706 56.0465 -20.0453 54.441 -20.0508 52.7646C-20.0563 51.0882 -20.7275 49.4783 -21.9168 48.2891C-23.1061 47.0998 -24.7159 46.4286 -26.3923 46.4231C-28.0687 46.4176 -29.6742 47.0782 -30.8557 48.2597L-50.8396 68.2436C-54.1022 59.2097 -54.7368 49.4515 -52.6694 40.1059C-50.602 30.7602 -45.9178 22.2118 -39.1624 15.4564C-32.4071 8.70102 -23.8586 4.01681 -14.513 1.94944C-5.1673 -0.117931 4.59084 0.516621 13.6247 3.77923L-6.34945 23.7534Z" fill="#AECC53"/>
</svg>

<svg xmlns="http://www.w3.org/2000/svg" width="75" height="130" fill="none" viewBox="0 0 75 130"><path fill="#aecc53" d="M-6.35 23.753a6.28 6.28 0 0 0-1.836 4.464 6.36 6.36 0 0 0 1.866 4.475 6.36 6.36 0 0 0 4.475 1.866 6.28 6.28 0 0 0 4.464-1.836L25.434 9.906a51 51 0 0 1 6.922 5.782 39 39 0 0 1 4.917 6.289l-22.7 22.7a6.3 6.3 0 0 0-1.635 4.407 6.38 6.38 0 0 0 1.867 4.338 6.38 6.38 0 0 0 4.338 1.868 6.3 6.3 0 0 0 4.408-1.636l20.08-20.08c2.422 5.069 4.806 10.758 7.124 16.786l-15.25 15.249a6.28 6.28 0 0 0-1.836 4.463 6.36 6.36 0 0 0 1.866 4.476 6.36 6.36 0 0 0 4.476 1.866 6.28 6.28 0 0 0 4.463-1.837L55.52 63.532c2.104 5.97 4.034 12.112 5.867 18.062l-4.948 4.947a6.28 6.28 0 0 0-1.836 4.464 6.36 6.36 0 0 0 1.866 4.475 6.36 6.36 0 0 0 4.475 1.866 6.28 6.28 0 0 0 4.464-1.837l.096-.096c5.443 18.972 8.953 33.652 8.953 33.652s-14.69-3.5-33.652-8.953l.096-.096a6.28 6.28 0 0 0 1.837-4.464 6.36 6.36 0 0 0-1.866-4.475 6.36 6.36 0 0 0-4.476-1.866 6.28 6.28 0 0 0-4.463 1.836l-4.957 4.958a557 557 0 0 1-18.052-5.877l11.045-11.045a6.28 6.28 0 0 0 1.837-4.463 6.36 6.36 0 0 0-1.866-4.476 6.36 6.36 0 0 0-4.476-1.866A6.28 6.28 0 0 0 11 90.115l-15.26 15.258c-6.018-2.307-11.717-4.701-16.786-7.122l20.09-20.09A6.3 6.3 0 0 0 .68 73.753a6.38 6.38 0 0 0-1.868-4.338 6.38 6.38 0 0 0-4.338-1.868 6.3 6.3 0 0 0-4.408 1.636L-32.642 91.89a40 40 0 0 1-6.289-4.916 51 51 0 0 1-5.781-6.922l22.825-22.825a6.28 6.28 0 0 0 1.836-4.463 6.36 6.36 0 0 0-1.866-4.476 6.36 6.36 0 0 0-4.475-1.866 6.28 6.28 0 0 0-4.464 1.837L-50.84 68.244a50.64 50.64 0 0 1-1.83-28.138 50.17 50.17 0 0 1 13.508-24.65A50.17 50.17 0 0 1-14.513 1.95a50.64 50.64 0 0 1 28.138 1.83z"/></svg>
